src/assets/svg/bubble.svg

<?xml version="1.0" encoding="UTF-8"?>
<svg width="33px" height="46px" viewBox="0 0 33 46" version="1.1" xmlns="http://www.w3.org/2000/svg" xmlns:xlink="http://www.w3.org/1999/xlink">
    <title>bubble</title>
    <g id="Main---For-Invision" stroke="none" stroke-width="1" fill="none" fill-rule="evenodd">
        <g id="Portfolio---Landing-Page" transform="translate(-704.000000, -900.000000)" fill="#F1F4FA" fill-rule="nonzero">
            <g id="bubble" transform="translate(704.000000, 900.000000)">
                <path d="M8.5,28.2142996 C13.1922053,28.2199593 16.9943404,32.0220944 17,36.7142996 C17,41.4087687 13.1944691,45.2142996 8.5,45.2142996 C3.80553094,45.2142996 0,41.4087687 0,36.7142996 C0,32.0198306 3.80553094,28.2142996 8.5,28.2142996 Z M8.5,29.7597542 C4.65900213,29.7597542 1.54545455,32.8733018 1.54545455,36.7142996 C1.54545455,40.5552975 4.65900213,43.6688451 8.5,43.6688451 C12.3391114,43.6643174 15.4500178,40.553411 15.4545455,36.7142996 C15.4545455,32.8733018 12.3409979,29.7597542 8.5,29.7597542 Z M4.1095822,38.2142996 C4.24394817,38.6327244 4.44315564,39.0286456 4.7,39.3879986 L4.7,39.3879986 L3.49070607,40.2142996 C3.14740639,39.7343418 2.88047557,39.2065641 2.7,38.6485472 L2.7,38.6485472 Z M8.5,30.7142996 L8.5,32.2142996 C6.015625,32.2168631 4.0025635,34.2299246 4,36.7142996 L4,36.7142996 L2.5,36.7142996 C2.50366206,33.4022879 5.18798828,30.7179617 8.5,30.7142996 L8.5,30.7142996 Z M26,12.2142996 C29.8642036,12.2188569 32.9954427,15.350096 33,19.2142996 C33,23.0804021 29.8661024,26.2142996 26,26.2142996 C22.1338976,26.2142996 19,23.0804021 19,19.2142996 C19,15.3481972 22.1338976,12.2142996 26,12.2142996 Z M26,13.7698552 C22.992947,13.7698552 20.5555556,16.2072466 20.5555556,19.2142996 C20.5555556,22.2213526 22.992947,24.6587441 26,24.6587441 C29.0055338,24.6553261 31.4410265,22.2198334 31.4444444,19.2142996 C31.4444444,16.2072466 29.007053,13.7698552 26,13.7698552 Z M28.9983207,20.5142996 L30.2,21.0533067 C29.928726,21.6276172 29.5185855,22.1287992 29.0047796,22.5142996 L29.0047796,22.5142996 L28.2,21.4895557 C28.5426449,21.2320302 28.8165025,20.8975936 28.9983207,20.5142996 L28.9983207,20.5142996 Z M25.5,14.5142996 C28.2604167,14.517148 30.4971517,16.753883 30.5,19.5142996 L30.5,19.5142996 L28.8333333,19.5142996 C28.8333333,17.6734793 27.3408203,16.1809663 25.5,16.1809663 L25.5,16.1809663 Z M8.5,0.21429963 C11.5377372,0.21429963 14,2.67656242 14,5.71429963 C14,8.75203684 11.5377372,11.2142996 8.5,11.2142996 C5.46379748,11.2108468 3.00345282,8.75050215 3,5.71429963 C3,2.67656242 5.46226279,0.21429963 8.5,0.21429963 Z M8.5,1.7857282 C6.3312291,1.78841377 4.57411414,3.54552873 4.57142857,5.71429963 C4.57142857,7.88383788 6.33046175,9.64287106 8.5,9.64287106 C10.6695383,9.64287106 12.4285714,7.88383788 12.4285714,5.71429963 C12.4285714,3.54476138 10.6695383,1.7857282 8.5,1.7857282 Z M8,3.21429963 L8,4.21429963 C7.44775388,4.21429963 7,4.6620535 7,5.21429963 L7,5.21429963 L6,5.21429963 C6,4.10980744 6.89550781,3.21429963 8,3.21429963 L8,3.21429963 Z" id="Combined-Shape"></path>
            </g>
        </g>
    </g>
</svg>

<svg width="33" height="46" xmlns="http://www.w3.org/2000/svg"><path d="M8.5 28.214a8.51 8.51 0 018.5 8.5 8.5 8.5 0 11-8.5-8.5zm0 1.546a6.954 6.954 0 100 13.909 6.963 6.963 0 006.955-6.955A6.954 6.954 0 008.5 29.76zm-4.39 8.454c.134.419.333.815.59 1.174l-1.21.826a5.715 5.715 0 01-.79-1.565zm4.39-7.5v1.5a4.504 4.504 0 00-4.5 4.5H2.5a6.007 6.007 0 016-6zm17.5-18.5a7.008 7.008 0 017 7 7 7 0 11-7-7zm0 1.556a5.444 5.444 0 100 10.888 5.444 5.444 0 000-10.888zm2.998 6.744l1.202.54a3.923 3.923 0 01-1.195 1.46L28.2 21.49c.343-.258.617-.592.798-.976zm-3.498-6a5.005 5.005 0 015 5h-1.667a3.333 3.333 0 00-3.333-3.333zM8.5.214a5.5 5.5 0 110 11 5.5 5.5 0 010-11zm0 1.572a3.929 3.929 0 100 7.857 3.929 3.929 0 000-7.857zM8 3.214v1a1 1 0 00-1 1H6a2 2 0 012-2z" fill="currentColor" fill-rule="nonzero"/></svg>
